X:264
T:Waltz of The Quaking Aspins
R:waltz
C:Bruce Osborne - Mat 2002
Z:abc by bosborne@kos.net
M:3/4
L:1/8
K:Gmaj
B,C|D3 G BG|D2 B,2 GB|c3 B cG|E3 G FE|\
D2 B,2 GA|B3 c BG|F3 ^E FG|A4 B,C|\
D3 G BG|D2 B,2 GB|c3 B cG|E3 G FE|\
D2 B,2 GA|B3 c BG|F2 FG AF|G3 G||\
AB|c3 B cG|E2 G2 ce|d3 ^c dB|G4 Bc|\
B2 A3 B|A4 dc|B2 G3 F|G3 G AB|\
c3 B cG|E2 G2 ce|d3 ^c dB|G4 Bc|\
B2 A3 B|A4 dc|B2 G3 F|G4||
